svg/weather/wave_fill.svg

<?xml version="1.0" encoding="UTF-8"?>
<svg width="24px" height="24px" viewBox="0 0 24 24" version="1.1" xmlns="http://www.w3.org/2000/svg" xmlns:xlink="http://www.w3.org/1999/xlink">
    <title>wave_fill</title>
    <g id="Icon" stroke="none" stroke-width="1" fill="none" fill-rule="evenodd">
        <g id="Weather" transform="translate(-912.000000, -48.000000)" fill-rule="nonzero">
            <g id="wave_fill" transform="translate(912.000000, 48.000000)">
                <path d="M24,0 L24,24 L0,24 L0,0 L24,0 Z M12.5935,23.2578 L12.5819,23.2595 L12.5109,23.295 L12.4919,23.2987 L12.4767,23.295 L12.4057,23.2595 C12.3958,23.2564 12.387,23.259 12.3821,23.2649 L12.378,23.2758 L12.3609,23.7031 L12.3659,23.7235 L12.3769,23.7357 L12.4805,23.8097 L12.4953,23.8136 L12.5071,23.8097 L12.6107,23.7357 L12.6233,23.7197 L12.6267,23.7031 L12.6096,23.2758 C12.6076,23.2657 12.601,23.2593 12.5935,23.2578 Z M12.8584,23.1453 L12.8445,23.1473 L12.6598,23.2397 L12.6499,23.2499 L12.6472,23.2611 L12.6651,23.6906 L12.6699,23.7034 L12.6784,23.7105 L12.8793,23.8032 C12.8914,23.8069 12.9022,23.803 12.9078,23.7952 L12.9118,23.7812 L12.8777,23.1665 C12.8753,23.1546 12.8674,23.147 12.8584,23.1453 Z M12.143,23.1473 C12.1332,23.1424 12.1222,23.1453 12.1156,23.1526 L12.1099,23.1665 L12.0758,23.7812 C12.0751,23.7927 12.0828,23.8019 12.0926,23.8046 L12.1083,23.8032 L12.3092,23.7105 L12.3186,23.7024 L12.3225,23.6906 L12.3404,23.2611 L12.3372,23.2485 L12.3278,23.2397 L12.143,23.1473 Z" id="MingCute"></path>
                <path d="M18.1468,6.73271 C16.8029579,6.52598474 14.964051,6.5131838 12.9025056,7.26107146 L12.5569,7.39286 C9.75821,8.51232 7.22832,8.51445 5.39676,8.23268 C4.35851,8.07295 3.27621,7.81478 2.32903,7.34179 C1.58806,6.97131 1.28772,6.0703 1.65819,5.32933 C2.00572882,4.63423353 2.82014433,4.32689291 3.53134801,4.59734319 L3.66335,4.65487 C4.34495,4.97578 5.11282,5.1537 5.85292,5.26756 C7.19670526,5.47429474 9.03562715,5.48709618 11.0971912,4.73920854 L11.4428,4.60742 C14.2415,3.48796 16.7714,3.48582 18.6029,3.7676 C19.6412,3.92733 20.7219,4.18592 21.6694,4.65788 C22.4012,5.02342 22.7075,5.93899 22.3415,6.67095 C21.9722,7.40949 21.2188,7.57812 20.3363,7.34541 L18.1468,6.73271 Z M18.1468,12.7327 C16.8029579,12.5259842 14.964051,12.5132197 12.9025056,13.2611111 L12.5569,13.3929 C9.75821,14.5123 7.22832,14.5145 5.39676,14.2327 C4.35851,14.073 3.27621,13.8148 2.32903,13.3418 C1.58806,12.9713 1.28772,12.0703 1.65819,11.3293 C2.00572882,10.6342412 2.82014433,10.3269028 3.53134801,10.5973699 L3.66335,10.6549 C4.34495,10.9758 5.11282,11.1537 5.85292,11.2676 C7.19670526,11.4743158 9.03562715,11.4870803 11.0971912,10.7391889 L11.4428,10.6074 C14.2415,9.48796 16.7714,9.48582 18.6029,9.7676 C19.6412,9.92733 20.7219,10.1859 21.6694,10.6579 C22.4012,11.0234 22.7075,11.939 22.3415,12.6709 C21.9722,13.4095 21.2188,13.5781 20.3363,13.3454 L18.1468,12.7327 Z M12.1934132,19.5326414 L12.5569,19.3929 C14.7582,18.5124 16.7283,18.5145 18.1468,18.7327 L20.3363,19.3454 C21.2188,19.5781 21.9722,19.4095 22.3415,18.6709 C22.7075,17.939 22.4012,17.0234 21.6694,16.6579 C20.7219,16.1859 19.6412,15.9273 18.6029,15.7676 C16.8510304,15.4980522 14.4601711,15.4883456 11.8062881,16.4676586 L11.4428,16.6074 C9.24148,17.4879 7.27136,17.4858 5.85292,17.2676 C5.21854857,17.1699714 4.56377469,17.0253224 3.96041364,16.7839038 L3.66335,16.6549 C2.92377,16.29 2.02745,16.5908 1.65819,17.3293 C1.28772,18.0703 1.58806,18.9713 2.32903,19.3418 C3.27621,19.8148 4.35851,20.073 5.39676,20.2327 C7.14868696,20.5022478 9.53953966,20.5119544 12.1934132,19.5326414 L12.1934132,19.5326414 Z" id="形状" fill="#09244B"></path>
            </g>
        </g>
    </g>
</svg>

<svg xmlns="http://www.w3.org/2000/svg" width="24" height="24"><g fill="none" fill-rule="nonzero"><path d="M24 0v24H0V0h24ZM12.594 23.258l-.012.002-.071.035-.02.004-.014-.004-.071-.036c-.01-.003-.019 0-.024.006l-.004.01-.017.428.005.02.01.013.104.074.015.004.012-.004.104-.074.012-.016.004-.017-.017-.427c-.002-.01-.009-.017-.016-.018Zm.264-.113-.014.002-.184.093-.01.01-.003.011.018.43.005.012.008.008.201.092c.012.004.023 0 .029-.008l.004-.014-.034-.614c-.003-.012-.01-.02-.02-.022Zm-.715.002a.023.023 0 0 0-.027.006l-.006.014-.034.614c0 .012.007.02.017.024l.015-.002.201-.093.01-.008.003-.011.018-.43-.003-.012-.01-.01-.184-.092Z"/><path fill="#09244B" d="M18.147 6.733a10.578 10.578 0 0 0-5.244.528l-.346.132a13.606 13.606 0 0 1-7.16.84c-1.038-.16-2.12-.418-3.068-.891a1.5 1.5 0 0 1 1.202-2.745l.132.058c.682.32 1.45.499 2.19.613 1.344.206 3.183.22 5.244-.529l.346-.132a13.606 13.606 0 0 1 7.16-.84c1.038.16 2.119.419 3.066.89a1.514 1.514 0 0 1 .672 2.014c-.369.738-1.122.907-2.005.674l-2.19-.612Zm0 6a10.578 10.578 0 0 0-5.244.528l-.346.132a13.606 13.606 0 0 1-7.16.84c-1.038-.16-2.12-.418-3.068-.891a1.5 1.5 0 0 1 1.202-2.745l.132.058c.682.32 1.45.499 2.19.613 1.344.206 3.183.22 5.244-.529l.346-.132a13.606 13.606 0 0 1 7.16-.84c1.038.16 2.119.419 3.066.89a1.514 1.514 0 0 1 .672 2.014c-.369.739-1.122.907-2.005.674l-2.19-.612Zm-5.954 6.8.364-.14a10.607 10.607 0 0 1 5.59-.66l2.19.612c.882.233 1.635.065 2.005-.674a1.514 1.514 0 0 0-.673-2.013c-.947-.472-2.028-.73-3.066-.89a13.583 13.583 0 0 0-6.797.7l-.363.14c-2.202.88-4.172.878-5.59.66-.634-.098-1.29-.243-1.893-.484l-.297-.13a1.5 1.5 0 0 0-1.334 2.688c.947.473 2.03.731 3.068.89 1.752.27 4.143.28 6.796-.7Z"/></g></svg>
